X: 55
T:Redesdale Hornpipe
% Nottingham Music Database
S:NPTB
M:4/4
L:1/8
R:Hornpipe
K:G

d2/3e2/3f2/3|"G"gdBd GB d2/3e2/3f2/3|"G"gdBd G2"g#"AB|"Am"cAFA "D"DFAc|"C"ed^cd "D7"B2 d2/3e2/3f2/3|
"G"gdBd GB d2/3e2/3f2/3|"G"gdBd G2"g#"AB|"Am"cAFA "D7"DFAB|"G"A2G2 G2:|:
GA|"G"BGFG DGFG|"G"BGFG D2AB|"Am"cAFA "D"DFAc|"C"ed^cd "D7"B2GA|
"G"BGFG DGFG|"G"BGFG D2AB|"Am"cAFA "D7"DFAB|"G"A2G2 G2:|


